X: 30422
T: Old Tom Of Oxford
R: reel
M: 4/4
K: Dmajor
|:DEFG A2G2|F2E2 D4|DEFG A2 d2|c2 e2 A4|
f2d2 g2 fe|d2 f2 A4|d2 A2 B2 AG|F2 E2 D4:|
|:DEFG A2 AG|F2 A2 A4|ABcB ABcB|ABcd e2 c2|
dcde f2 d2|e2c2 d4|d2 A2 B2 AG|F2 E2 D4:|

